X:6
T:La mal-aimable
I:last changed 14/2/2016
F:http://www.campin.me.uk/Music/Edinbal.abc
C:Jean-Christophe Lequerre
M:3/4
L:1/8
K:C
e2   c2    B2 |A2 FA Bc|B2 GB cd|   e2   Be    Be  |
e2 (3cdc (3BcB|A2 FA Bc|B2 GB cd|   B6            :|
c2   Ac    Ac |f2 cf cf|B2 GB GB|[1 e2   Be    Be  |
A2   FA    FA |d2 Ad Ad|B2 eB eB|   d2 (3cdc (3BcB:|
                                 [2 eB   Be    Be  |\
A2   FA    FA |d2 Ad Ad|B2 EB cB|   A6            |]

